X:137
T: Alte Kuckukslieder (Kuckuks Ausflug)
N: A0170A
O: Europa, Mitteleuropa, Deutschland
N: Aus Fragmenten in Schmeltzels neuntem Quodlibet (1544) von mir
N: zusammengefuegt. Anders und ohne alle musikalische Ruecksicht
N: von Uhland No. 14 zusammengesetzt.
R: Romanze, Ballade, Lied
M: 4/2
L: 1/2
K: F
F | FccA | c2c
B | AGAB | G2F
F | AGAB | c2G
G | AGAB | c2GA | F3

@@@ Tune index: 137
